img/icon-location.svg

<svg width="18" height="24" viewBox="0 0 18 24" fill="none" xmlns="http://www.w3.org/2000/svg">
<mask id="path-1-inside-1" fill="white">
<path fill-rule="evenodd" clip-rule="evenodd" d="M15.3747 13.7333C16.4675 12.2961 17.1162 10.5029 17.1162 8.55808C17.1162 3.83158 13.2846 0 8.55808 0C3.83158 0 0 3.83158 0 8.55808C0 10.503 0.648776 12.2964 1.74172 13.7336L8.55813 24L15.3747 13.7333Z"/>
</mask>
<path d="M15.3747 13.7333L13.3846 12.2201L13.3362 12.2838L13.2919 12.3505L15.3747 13.7333ZM1.74172 13.7336L3.82444 12.3507L3.78016 12.284L3.73169 12.2203L1.74172 13.7336ZM8.55813 24L6.4754 25.3828L8.55814 28.5197L10.6409 25.3828L8.55813 24ZM14.6162 8.55808C14.6162 9.93755 14.1581 11.2029 13.3846 12.2201L17.3647 15.2465C18.7768 13.3894 19.6162 11.0682 19.6162 8.55808H14.6162ZM8.55808 2.5C11.9039 2.5 14.6162 5.2123 14.6162 8.55808H19.6162C19.6162 2.45087 14.6653 -2.5 8.55808 -2.5V2.5ZM2.5 8.55808C2.5 5.2123 5.2123 2.5 8.55808 2.5V-2.5C2.45087 -2.5 -2.5 2.45087 -2.5 8.55808H2.5ZM3.73169 12.2203C2.9581 11.203 2.5 9.93763 2.5 8.55808H-2.5C-2.5 11.0683 -1.66055 13.3897 -0.248259 15.2469L3.73169 12.2203ZM-0.341012 15.1164L6.4754 25.3828L10.6409 22.6171L3.82444 12.3507L-0.341012 15.1164ZM10.6409 25.3828L17.4574 15.1162L13.2919 12.3505L6.47539 22.6171L10.6409 25.3828Z" fill="#F5F4F6" mask="url(#path-1-inside-1)"/>
<circle cx="8.55814" cy="8.37183" r="2.79068" stroke="#F5F4F6" stroke-width="2.5"/>
</svg>

<svg width="18" height="24" fill="none" xmlns="http://www.w3.org/2000/svg"><mask id="a" fill="#fff"><path fill-rule="evenodd" clip-rule="evenodd" d="M15.375 13.733a8.558 8.558 0 10-13.633 0L8.558 24l6.817-10.267z"/></mask><path d="M15.375 13.733l-1.99-1.513-.049.064-.044.066 2.083 1.383zm-13.633 0l2.082-1.382-.044-.067-.048-.064-1.99 1.514zM8.558 24l-2.083 1.383 2.083 3.137 2.083-3.137L8.558 24zm6.058-15.442a6.02 6.02 0 01-1.231 3.662l3.98 3.026a11.02 11.02 0 002.251-6.688h-5zM8.558 2.5a6.058 6.058 0 016.058 6.058h5c0-6.107-4.95-11.058-11.058-11.058v5zM2.5 8.558A6.058 6.058 0 018.558 2.5v-5C2.451-2.5-2.5 2.45-2.5 8.558h5zm1.232 3.662A6.02 6.02 0 012.5 8.558h-5c0 2.51.84 4.832 2.252 6.689l3.98-3.027zm-4.073 2.896l6.816 10.267 4.166-2.766-6.817-10.266-4.165 2.765zm10.982 10.267l6.816-10.267-4.165-2.765-6.817 10.266 4.166 2.766z" fill="#F5F4F6" mask="url(#a)"/><circle cx="8.558" cy="8.372" r="2.791" stroke="#F5F4F6" stroke-width="2.5"/></svg>
